X:301
T:O'Keeffe's Slide
S:Sessions, LPs, etc
Z:Nigel Gatherer <gatherer@argonet.co.uk>
M:12/8
L:1/8
K:Am
A2 e e2 d BAB d2 B|A2 e e2 d B2 G GFG|
A2 e e2 d BAB d3|BAB d2 e B2 A A3:|
e2 a a2 b a2 g e2 d|e2 a a2 b a2 g e2 f|
g2 a g2 e dBA G3|BAB d2 e B2 A A3:|
<end>
<start>
